svg/color/qbtson.svg

<svg width="40" height="40" viewBox="0 0 40 40" fill="none" xmlns="http://www.w3.org/2000/svg">
<g clip-path="url(#clip0_819_3510)">
<path d="M20 0C31.0457 0 40 8.9543 40 20C40 31.0457 31.0457 40 20 40C8.95431 40 7.90517e-06 31.0457 0 20C6.58765e-07 8.95431 8.95431 1.97595e-06 20 0Z" fill="#CCE8F7"/>
<path d="M26 6C30.4183 6 34 9.58172 34 14V26C34 30.4183 30.4183 34 26 34H14C9.58172 34 6 30.4183 6 26V14C6 9.58172 9.58172 6 14 6H26Z" fill="#008CD7"/>
<path d="M18.4217 20.0038C18.4217 21.3217 17.3515 22.3902 16.0313 22.3902C14.7111 22.3902 13.641 21.3218 13.641 20.0038C13.641 18.6859 14.7111 17.6176 16.0313 17.6176C17.3515 17.6176 18.4217 18.686 18.4217 20.0038ZM16.0313 10C14.7112 10 13.641 11.0681 13.641 12.3857C13.641 13.7032 14.7111 14.7714 16.0313 14.7714C17.3515 14.7714 18.4217 13.7033 18.4217 12.3857C18.4217 11.0681 17.3515 10 16.0313 10ZM23.9685 25.2317C22.6486 25.2317 21.5787 26.2954 21.5787 27.6181C21.5787 28.9317 22.6483 30 23.9685 30C25.2889 30 26.3588 28.9317 26.3588 27.6181C26.3588 26.2954 25.2885 25.2317 23.9685 25.2317ZM21.578 20.0038C21.578 18.6859 22.6482 17.6176 23.9685 17.6176C25.2886 17.6176 26.3588 18.6859 26.3588 20.0038C26.3588 21.3217 25.2886 22.3902 23.9685 22.3902C22.6482 22.3902 21.578 21.3218 21.578 20.0038ZM21.9947 20.0038C21.9947 21.0899 22.8801 21.9735 23.9685 21.9735C25.0568 21.9735 25.9421 21.0899 25.9421 20.0038C25.9421 18.9178 25.0568 18.0342 23.9685 18.0342C22.8801 18.0342 21.9947 18.9178 21.9947 20.0038Z" fill="white"/>
</g>
<defs>
<clipPath id="clip0_819_3510">
<rect width="40" height="40" fill="white"/>
</clipPath>
</defs>
</svg>

<svg xmlns="http://www.w3.org/2000/svg" width="40" height="40" fill="none" viewBox="0 0 40 40"><g clip-path="url(#qbtson_svg-a)"><path fill="#CCE8F7" d="M20 0c11.046 0 20 8.954 20 20s-8.954 20-20 20S0 31.046 0 20 8.954 0 20 0"/><path fill="#008CD7" d="M26 6a8 8 0 0 1 8 8v12a8 8 0 0 1-8 8H14a8 8 0 0 1-8-8V14a8 8 0 0 1 8-8z"/><path fill="#fff" d="M18.422 20.004a2.39 2.39 0 0 1-2.39 2.386 2.39 2.39 0 0 1-2.391-2.386 2.39 2.39 0 0 1 2.39-2.386c1.32 0 2.39 1.068 2.39 2.386M16.032 10a2.39 2.39 0 0 0-2.391 2.386 2.39 2.39 0 0 0 2.39 2.385c1.32 0 2.39-1.068 2.39-2.385A2.39 2.39 0 0 0 16.032 10m7.936 15.232a2.385 2.385 0 1 0 0 4.768c1.32 0 2.39-1.068 2.39-2.382a2.385 2.385 0 0 0-2.39-2.386m-2.39-5.228a2.39 2.39 0 0 1 2.39-2.386c1.32 0 2.39 1.068 2.39 2.386a2.39 2.39 0 0 1-2.39 2.386 2.39 2.39 0 0 1-2.39-2.386m.417 0a1.974 1.974 0 0 0 3.947 0 1.974 1.974 0 0 0-3.947 0"/></g><defs><clipPath id="qbtson_svg-a"><path fill="#fff" d="M0 0h40v40H0z"/></clipPath></defs></svg>
